assets/svg/Instagram.svg

<svg width="48" height="48" viewBox="0 0 48 48" fill="none" xmlns="http://www.w3.org/2000/svg">
<g clip-path="url(#clip0_9_50)">
<path d="M26.4672 0C29.1671 0.00719983 30.5374 0.0215995 31.7206 0.0551987L32.1861 0.0719982C32.7237 0.0911977 33.2541 0.115197 33.8949 0.143996C36.4483 0.263993 38.1906 0.667184 39.7194 1.25997C41.3033 1.86955 42.6376 2.69513 43.9719 4.0271C45.1928 5.22643 46.1371 6.67777 46.739 8.2798C47.3318 9.80856 47.735 11.5509 47.855 14.1069C47.8838 14.7452 47.9077 15.2756 47.9269 15.8156L47.9413 16.2812C47.9773 17.462 47.9917 18.8323 47.9965 21.5323L47.9989 23.3226V26.4666C48.0048 28.2171 47.9864 29.9676 47.9437 31.7176L47.9293 32.1832C47.9101 32.7232 47.8862 33.2536 47.8573 33.892C47.7374 36.4479 47.3294 38.1879 46.739 39.719C46.1371 41.3211 45.1928 42.7724 43.9719 43.9717C42.7727 45.1926 41.3213 46.1369 39.7194 46.7389C38.1906 47.3317 36.4483 47.7348 33.8949 47.8548L32.1861 47.9268L31.7206 47.9412C30.5374 47.9748 29.1671 47.9916 26.4672 47.9964L24.6769 47.9988H21.5355C19.7842 48.005 18.0329 47.9866 16.2821 47.9436L15.8166 47.9292C15.2469 47.9077 14.6773 47.8829 14.1079 47.8548C11.5544 47.7348 9.81207 47.3317 8.28095 46.7389C6.67982 46.1366 5.22936 45.1923 4.03076 43.9717C2.80909 42.7726 1.86393 41.3213 1.2613 39.719C0.668532 38.1903 0.265352 36.4479 0.145358 33.892L0.0733613 32.1832L0.0613622 31.7176C0.017123 29.9676 -0.00287816 28.2171 0.00136504 26.4666V21.5323C-0.00527757 19.7818 0.0123234 18.0312 0.0541626 16.2812L0.0709616 15.8156C0.0901607 15.2756 0.114159 14.7452 0.142958 14.1069C0.262952 11.5509 0.666131 9.81096 1.2589 8.2798C1.86294 6.67711 2.80976 5.22572 4.03316 4.0271C5.23107 2.80685 6.68068 1.86253 8.28095 1.25997C9.81207 0.667184 11.552 0.263993 14.1079 0.143996C14.7462 0.115197 15.279 0.0911977 15.8166 0.0719982L16.2821 0.0575984C18.0321 0.0149581 19.7826 -0.00344319 21.5331 0.00239977L26.4672 0ZM24.0002 11.9997C20.8177 11.9997 17.7656 13.264 15.5153 15.5143C13.265 17.7647 12.0008 20.8169 12.0008 23.9994C12.0008 27.1819 13.265 30.2341 15.5153 32.4845C17.7656 34.7349 20.8177 35.9991 24.0002 35.9991C27.1826 35.9991 30.2347 34.7349 32.485 32.4845C34.7353 30.2341 35.9995 27.1819 35.9995 23.9994C35.9995 20.8169 34.7353 17.7647 32.485 15.5143C30.2347 13.264 27.1826 11.9997 24.0002 11.9997ZM24.0002 16.7996C24.9456 16.7994 25.8819 16.9855 26.7554 17.3472C27.629 17.7089 28.4228 18.2391 29.0914 18.9075C29.7601 19.576 30.2905 20.3696 30.6525 21.2431C31.0145 22.1165 31.2008 23.0527 31.201 23.9982C31.2011 24.9437 31.0151 25.88 30.6534 26.7536C30.2917 27.6271 29.7616 28.4209 29.0931 29.0896C28.4247 29.7583 27.6311 30.2888 26.7576 30.6507C25.8842 31.0127 24.948 31.1991 24.0026 31.1992C22.0931 31.1992 20.2618 30.4407 18.9116 29.0905C17.5614 27.7402 16.8029 25.9089 16.8029 23.9994C16.8029 22.0899 17.5614 20.2586 18.9116 18.9084C20.2618 17.5581 22.0931 16.7996 24.0026 16.7996M36.6019 8.3998C35.8063 8.3998 35.0433 8.71586 34.4807 9.27845C33.9181 9.84105 33.6021 10.6041 33.6021 11.3997C33.6021 12.1954 33.9181 12.9584 34.4807 13.521C35.0433 14.0836 35.8063 14.3997 36.6019 14.3997C37.3975 14.3997 38.1606 14.0836 38.7231 13.521C39.2857 12.9584 39.6018 12.1954 39.6018 11.3997C39.6018 10.6041 39.2857 9.84105 38.7231 9.27845C38.1606 8.71586 37.3975 8.3998 36.6019 8.3998Z" fill="#FFC526"/>
</g>
<defs>
<clipPath id="clip0_9_50">
<rect width="48" height="48" fill="white"/>
</clipPath>
</defs>
</svg>

<?xml version="1.0" encoding="utf-8"?>
<!-- Generator: Adobe Illustrator 28.3.0, SVG Export Plug-In . SVG Version: 6.00 Build 0)  -->
<svg version="1.1" id="Capa_1" xmlns="http://www.w3.org/2000/svg" xmlns:xlink="http://www.w3.org/1999/xlink" x="0px" y="0px"
	 viewBox="0 0 48 48" style="enable-background:new 0 0 48 48;" xml:space="preserve">
<style type="text/css">
	.st0{fill:#FFC526;}
</style>
<path class="st0" d="M26.5,0c2.7,0,4.1,0,5.3,0.1h0.5c0.5,0,1.1,0,1.7,0.1c2.6,0.1,4.3,0.5,5.8,1.1S42.6,2.7,44,4
	c1.2,1.2,2.2,2.7,2.8,4.3c0.6,1.5,1,3.3,1.1,5.8c0,0.6,0.1,1.2,0.1,1.7v0.5c0,1.2,0.1,2.6,0.1,5.3v1.8v3.1c0,1.8,0,3.5-0.1,5.3v0.5
	c0,0.5,0,1.1-0.1,1.7c-0.1,2.6-0.5,4.3-1.1,5.8c-0.6,1.6-1.5,3.1-2.8,4.3c-1.2,1.2-2.7,2.2-4.3,2.8c-1.5,0.6-3.3,1-5.8,1.1l-1.7,0.1
	h-0.5c-1.2,0-2.6,0.1-5.3,0.1h-1.8h-3.1c-1.8,0-3.5,0-5.3-0.1h-0.5c-0.6,0-1.1,0-1.7-0.1c-2.6-0.1-4.3-0.5-5.8-1.1
	c-1.5-0.8-3-1.7-4.2-2.9s-2.2-2.7-2.8-4.3c-0.6-1.5-1-3.3-1.1-5.8L0,32.2v-0.5c0-1.7,0-3.5,0-5.2v-4.9c0-1.8,0-3.5,0.1-5.3v-0.5
	c0-0.5,0-1.1,0.1-1.7c0.1-2.6,0.5-4.3,1.1-5.8C1.9,6.7,2.8,5.2,4,4s2.6-2.2,4.2-2.8c1.5-0.6,3.3-1,5.8-1.1c0.6,0,1.2-0.1,1.7-0.1
	h0.5c1.8,0,3.6,0,5.3,0H26.5z M24,12c-3.2,0-6.2,1.3-8.5,3.5C13.3,17.8,12,20.8,12,24s1.3,6.2,3.5,8.5S20.8,36,24,36
	s6.2-1.3,8.5-3.5c2.3-2.3,3.5-5.3,3.5-8.5s-1.3-6.2-3.5-8.5C30.2,13.3,27.2,12,24,12z M24,16.8c0.9,0,1.9,0.2,2.8,0.5
	c0.9,0.4,1.7,0.9,2.3,1.6c0.7,0.7,1.2,1.5,1.6,2.3c0.4,0.9,0.5,1.8,0.5,2.8c0,0.9-0.2,1.9-0.5,2.8c-0.4,0.9-0.9,1.7-1.6,2.3
	c-0.7,0.7-1.5,1.2-2.3,1.6c-0.9,0.4-1.8,0.5-2.8,0.5c-1.9,0-3.7-0.8-5.1-2.1c-1.4-1.4-2.1-3.2-2.1-5.1s0.8-3.7,2.1-5.1
	C20.3,17.6,22.1,16.8,24,16.8 M36.6,8.4c-0.8,0-1.6,0.3-2.1,0.9c-0.6,0.6-0.9,1.3-0.9,2.1s0.3,1.6,0.9,2.1c0.6,0.6,1.3,0.9,2.1,0.9
	s1.6-0.3,2.1-0.9c0.6-0.6,0.9-1.3,0.9-2.1s-0.3-1.6-0.9-2.1C38.2,8.7,37.4,8.4,36.6,8.4z"/>
</svg>
